X:1
T:Title
%%score { ( 1 3 ) | ( 2 4 ) }
L:1/8
Q:1/4=87
M:6/8
K:Bb
V:1 treble nm="Grand Piano"
V:3 treble 
V:2 bass 
V:4 bass 
V:1
 [DF][DF][DF] [DF][EG][EA] | [DB]3 .[DF]3 | FED [CE]2 [A,F] | [B,D]6 | [DF][DF][DF] [DF][EG][EA] | %5
w: Wm.~J.~Kirkpatrick * * * * *|||||
 [DB]3 .[DF]3 | F=EF [FA]2 [EG] | F6 | ccc cBA | [DB]3 .[DF]3 | BBB cB[Gc] | d-[Ad-][Gd-] [^Fd]3 | %12
w: |||||||
 [Fd][Ec][DB] [DB]2 [DF] |[M:7/8] [F_A]3 G3 G |[M:3/4] F>F F G2 A | [DB]6 |] %16
w: ||||
V:2
 [B,,B,][B,,B,][B,,B,] [B,,B,]2 [B,,F,] | [B,,F,]3 .[B,,B,]3 | %2
 [F,A,C][F,A,C][F,=B,] [F,,F,]2 [F,,F,] | [B,,F,]6 | [B,,B,][B,,B,][B,,B,] [B,,B,]2 [B,,F,] | %5
 [B,,F,]3 .[B,,B,]3 | [C,A,C][C,G,C][C,A,C] [C,C]2 [C,B,] | [F,A,C]6 | %8
 [F,A,E][F,A,E][F,A,E] [F,A,E][F,B,E][F,CE] | [B,,B,]3 .[B,,B,]3 | %10
 [G,B,D][G,B,D][G,B,D] [E,G,]2 [E,G,] | .A,3 z3 | [B,,B,][B,,F,][B,,F,] [B,,F,]2 [B,,B,] | %13
[M:7/8] [D,B,]3 [E,B,E]3 [E,B,E] |[M:3/4] [F,B,D]>[F,B,D] [F,B,D] [F,A,E]2 [F,E] | [B,,F,]6 |] %16
V:3
 x6 | x6 | x6 | x6 | x6 | x6 | x6 | x6 | x6 | x6 | z3 .G3 | .^F3 z3 | x6 |[M:7/8] x7 |[M:3/4] x6 | %15
 x6 |] %16
V:4
 x6 | x6 | x6 | x6 | x6 | x6 | x6 | x6 | x6 | x6 | x6 | D,-[D,-C][D,-B,] [D,A,]3 | x6 |[M:7/8] x7 | %14
[M:3/4] x6 | x6 |] %16

